X: 52
T:Captain Maguire
% Nottingham Music Database
S:Nan F-W, via EF
M:4/4
L:1/4
K:D
P:A
F/2G/2|"D"A/2B/2A/2G/2 FA|"D"de "Bm"fe/2f/2|"Em"ga/2g/2 "A7"fe|
"D"df "A7"AF/2G/2|"D"A/2B/2A/2G/2 FA|"D"de "Bm"fe/2f/2|"Em"ga/2g/2 "A7"fe|\
"D"d3:|
P:B
c/2d/2|"A"e3/2e/2 ed|"A"ce a2|"A"e3/2e/2 ef|"A"ge cA|"A"e3/2e/2 ed|"A"ce a2|\
"E7"e/2f/2e/2d/2 cB|"A"A3:|<end>
<start>
